X:13
T:Geminianis minuet
C:Dear Nanney
C:from Edward Winder's ms2
M:3/8
L:1/16
K:D
d4c2|d4c2|d4e2|f4d2|g4f2|e4d2|c4d2|e6:|
|:e2c2A2|f2d2B2|g2e2c2|a6|b2g2e2|c2d2e2|f4e2|d6:|
%%vskip 1cm
